packages/icons/src/__generated__/nav/svg/nav-institutionalProduct-16-inactive.svg

<svg xmlns="http://www.w3.org/2000/svg" fill="#1652F0" viewBox="0 0 16 16"><path d="M.989 6.995V4.358l7-3.363 7 3.363v2.637h-2v5h2v3h-14v-3h2v-5h-2Zm10 5v-5h-2v5h2Zm-6-5v5h2v-5h-2Zm8.4-1.63-5.4-2.595-5.4 2.595v.03h10.8v-.03Z"/></svg>

<svg xmlns="http://www.w3.org/2000/svg" fill="#1652F0" viewBox="0 0 16 16"><path d="M1 7V4.363L8 1l7 3.363V7h-2v6h2v2H1v-2h2V7H1Zm10 6V7H9v6h2ZM5 7v6h2V7H5Zm8.4-1.63L8 2.775 2.6 5.37v.03h10.8v-.03Z"/></svg>
